X:35
M:6/8
L:1/8
K:G
|: d2B d2B | c2A c2A | Bcd dcB | AGA A2D | G2D B2G | d2B (g3 | g)fe d2c | BcA G3 :|

